src/assets/outline/Box1.svg

<svg width="24" height="24" viewBox="0 0 24 24"  xmlns="http://www.w3.org/2000/svg">
<path d="M12.0001 13.2999C11.8701 13.2999 11.7401 13.2699 11.6201 13.1999L2.79008 8.08986C2.44008 7.87986 2.31008 7.41986 2.52008 7.05986C2.73008 6.69986 3.19008 6.57986 3.55008 6.78986L12.0001 11.6799L20.4001 6.81986C20.7601 6.60986 21.2201 6.73986 21.4301 7.08986C21.6401 7.44986 21.5101 7.90986 21.1601 8.11986L12.3901 13.1999C12.2601 13.2599 12.1301 13.2999 12.0001 13.2999Z" />
<path d="M12 22.36C11.59 22.36 11.25 22.02 11.25 21.61V12.54C11.25 12.13 11.59 11.79 12 11.79C12.41 11.79 12.75 12.13 12.75 12.54V21.61C12.75 22.02 12.41 22.36 12 22.36Z" />
<path d="M12.0001 22.75C11.1201 22.75 10.2501 22.56 9.56014 22.18L4.22014 19.21C2.77014 18.41 1.64014 16.48 1.64014 14.82V9.17C1.64014 7.51 2.77014 5.59 4.22014 4.78L9.56014 1.82C10.9301 1.06 13.0701 1.06 14.4401 1.82L19.7801 4.79C21.2301 5.59 22.3601 7.52 22.3601 9.18V14.83C22.3601 16.49 21.2301 18.41 19.7801 19.22L14.4401 22.18C13.7501 22.56 12.8801 22.75 12.0001 22.75ZM12.0001 2.75C11.3701 2.75 10.7501 2.88 10.2901 3.13L4.95014 6.1C3.99014 6.63 3.14014 8.07 3.14014 9.17V14.82C3.14014 15.92 3.99014 17.36 4.95014 17.9L10.2901 20.87C11.2001 21.38 12.8001 21.38 13.7101 20.87L19.0501 17.9C20.0101 17.36 20.8601 15.93 20.8601 14.82V9.17C20.8601 8.07 20.0101 6.63 19.0501 6.09L13.7101 3.12C13.2501 2.88 12.6301 2.75 12.0001 2.75Z" />
</svg>

<?xml version="1.0" encoding="UTF-8"?>
<svg width="24" height="24" viewBox="0 0 24 24" xmlns="http://www.w3.org/2000/svg">
 <path d="m12 13.3c-0.13 0-0.26-0.03-0.38-0.1l-8.83-5.11c-0.35-0.21-0.48-0.67-0.27-1.03s0.67-0.48 1.03-0.27l8.45 4.89 8.4-4.86c0.36-0.21 0.82-0.08 1.03 0.27 0.21 0.36 0.08 0.82-0.27 1.03l-8.77 5.08c-0.13 0.06-0.26 0.1-0.39 0.1z"/>
 <path d="m12 22.36c-0.41 0-0.75-0.34-0.75-0.75v-9.07c0-0.41 0.34-0.75 0.75-0.75s0.75 0.34 0.75 0.75v9.07c0 0.41-0.34 0.75-0.75 0.75z"/>
 <path d="m12 22.75c-0.88 0-1.75-0.19-2.44-0.57l-5.34-2.97c-1.45-0.8-2.58-2.73-2.58-4.39v-5.65c0-1.66 1.13-3.58 2.58-4.39l5.34-2.96c1.37-0.76 3.51-0.76 4.88 0l5.34 2.97c1.45 0.8 2.58 2.73 2.58 4.39v5.65c0 1.66-1.13 3.58-2.58 4.39l-5.34 2.96c-0.69 0.38-1.56 0.57-2.44 0.57zm0-20c-0.63 0-1.25 0.13-1.71 0.38l-5.34 2.97c-0.96 0.53-1.81 1.97-1.81 3.07v5.65c0 1.1 0.85 2.54 1.81 3.08l5.34 2.97c0.91 0.51 2.51 0.51 3.42 0l5.34-2.97c0.96-0.54 1.81-1.97 1.81-3.08v-5.65c0-1.1-0.85-2.54-1.81-3.08l-5.34-2.97c-0.46-0.24-1.08-0.37-1.71-0.37z"/>
</svg>
